www/assets/icons/home_mini.svg

<svg xmlns="http://www.w3.org/2000/svg" width="24" height="24" viewBox="0 0 24 24" fill='currentColor'><path d="M12 5C4.19 5 2 9.48 2 12c0 3.86 3.13 7 6.99 7h6.02C17.7 19 22 16.92 22 12c0 0 0-7-10-7m0 2c7.64 0 7.99 4.51 8 5H4c0-.2.09-5 8-5m2.86 10H9.14c-2.1 0-3.92-1.24-4.71-3h15.15c-.8 1.76-2.62 3-4.72 3"/></svg>

<svg width="24" height="24" viewBox="0 0 24 24" xmlns="http://www.w3.org/2000/svg" fill='currentColor'><path d="M12 5C4.19 5 2 9.48 2 12C2 15.86 5.13 19 8.99 19H15.01C17.7 19 22 16.92 22 12C22 12 22 5 12 5ZM12 7C19.64 7 19.99 11.51 20 12H4C4 11.8 4.09 7 12 7ZM14.86 17H9.14C7.04 17 5.22 15.76 4.43 14H19.58C18.78 15.76 16.96 17 14.86 17Z"/></svg>
